packages/base/core/src/svg/system/file.svg

<?xml version="1.0" encoding="UTF-8"?>
<svg width="24px" height="24px" viewBox="0 0 24 24" version="1.1" xmlns="http://www.w3.org/2000/svg" xmlns:xlink="http://www.w3.org/1999/xlink">
    <!-- Generator: Sketch 54.1 (76490) - https://sketchapp.com -->
    <title>Icons/System/file</title>
    <desc>Created with Sketch.</desc>
    <g id="Icons/System/file" stroke="none" stroke-width="1" fill="none" fill-rule="evenodd">
        <path d="M13.9800007,3.5 L14.4062918,3.5 C14.8682963,3.5 15.3107427,3.68647934 15.633366,4.01717902 L18.0127885,6.45616624 C18.3251563,6.77635364 18.5,7.20595467 18.5,7.65327293 L18.5,7.74932765 L18.5,18.8 C18.5,19.7388841 17.7239602,20.5 16.7666667,20.5 L7.23333333,20.5 C6.27603977,20.5 5.5,19.7388841 5.5,18.8 L5.5,5.2 C5.5,4.26111593 6.27603977,3.5 7.23333333,3.5 L13.9800007,3.5 Z M12.5,5.2 L7.23333333,5.2 L7.23333333,18.8 L16.7666667,18.8 L16.7666667,9.5 L14.2142857,9.5 C13.2675119,9.5 12.5,8.73248814 12.5,7.78571429 L12.5,5.2 Z M14.4080631,5.23633788 C14.377807,5.22195899 14.3444503,5.21428571 14.3102888,5.21428571 C14.2572677,5.21428571 14.2142857,5.25726774 14.2142857,5.31028877 L14.2142857,7.58571429 C14.2142857,7.69617124 14.3038288,7.78571429 14.4142857,7.78571429 L16.7194936,7.78571429 C16.7379576,7.78571429 16.7546566,7.77815757 16.7666667,7.76596814 L16.7666667,7.64310203 C16.7594768,7.62958012 16.7503534,7.61702686 16.7394716,7.60587261 L15.1739259,6.00113616 L14.4080631,5.23633788 Z" id="Color" fill="#2859C0"></path>
    </g>
</svg>

<svg xmlns="http://www.w3.org/2000/svg" width="24" height="24" viewBox="0 0 24 24">
    <path fill="#0050D7" fill-rule="evenodd" d="M14.146 3.5h.26c.462 0 .905.186 1.227.517l2.38 2.44c.312.32.487.749.487 1.196V18.8c0 .939-.776 1.7-1.733 1.7H7.233c-.957 0-1.733-.761-1.733-1.7V5.2c0-.939.776-1.7 1.733-1.7h6.913zm-1.647 1.699L7.233 5.2v13.6h9.534l-.001-9.3h-2.552A1.714 1.714 0 0 1 12.5 7.786l-.001-2.587zm1.811.015a.096.096 0 0 0-.096.096v2.276c0 .11.09.2.2.2h2.305c.02 0 .037-.009.05-.022l-.002-.12a.163.163 0 0 0-.028-.038l-1.578-1.618-.749-.75a.228.228 0 0 0-.102-.024z"/>
</svg>
